local/templates/main/img/svg/logos/astralinux.svg

<svg width="163" height="51" viewBox="0 0 163 51" fill="none" xmlns="http://www.w3.org/2000/svg">
<path d="M14.4372 21.0396H17.1929L22.4449 39.6242H20.1566L18.6747 34.2844H12.773L11.3938 39.6242H9.10547L14.4372 21.0396ZM15.7909 22.5357H15.7396L13.2689 32.4206H18.2102L15.7909 22.5357Z" fill="#424346"/>
<path d="M26.1378 33.7386C26.1378 36.4735 26.9186 38.2045 29.6743 38.2045C31.7802 38.2045 33.2392 37.3022 33.2392 35.1075C33.2392 32.7091 32.0937 32.1123 30.1958 31.3911L27.4373 30.3588C25.7218 29.714 24.4194 28.4243 24.4194 25.48C24.4194 22.5358 26.4741 20.6804 29.5175 20.6804C32.7662 20.6804 34.6926 22.5131 34.8493 25.9212H32.7662C32.7662 23.882 31.7546 22.5414 29.6714 22.5414C27.3575 22.5414 26.5767 23.9329 26.5767 25.4828C26.5767 27.1855 27.0184 27.935 28.2152 28.3733L31.2074 29.482C34.174 30.5936 35.3936 32.3471 35.3936 34.7992C35.3936 38.3091 33.2079 40.0655 29.6201 40.0655C26.0324 40.0655 24.0547 37.7434 24.0547 33.7443H26.1321L26.1378 33.7386Z" fill="#424346"/>
<path d="M43.4614 39.6242H41.3811V22.8977H36.5195V21.0396H48.3002V22.8977H43.4642L43.4614 39.6242Z" fill="#424346"/>
<path d="M52.6936 39.6242H50.6133V21.0396H56.307C59.5841 21.0396 61.7442 22.6149 61.7442 26.1022C61.7442 28.2206 60.5217 30.0787 58.3616 30.387V30.4379C60.3393 30.6699 61.5618 32.3499 61.5618 34.6464C61.5618 38.5183 61.9009 38.6484 62.1859 39.2141V39.627H60.08C59.6639 38.4165 59.4815 37.3305 59.4815 35.3167C59.4815 32.8646 58.3901 31.4476 56.0733 31.4476H52.6936V39.6242ZM52.6936 29.581H56.307C57.7632 29.581 59.5841 28.9107 59.5841 26.1729C59.5841 23.4917 58.0481 22.8949 56.23 22.8949H52.6936V29.581Z" fill="#424346"/>
<path d="M69.6951 21.0396H72.4507L77.7055 39.6242H75.4172L73.9354 34.2844H68.0308L66.6516 39.6242H64.3633L69.6951 21.0396ZM71.0487 22.5357H70.9974L68.5267 32.4206H73.468L71.0487 22.5357Z" fill="#424346"/>
<path d="M89.5714 37.766H97.2143V39.6242H87.4883V21.0396H89.5686V37.766H89.5714Z" fill="#424346"/>
<path d="M101.82 39.6242H99.7393V21.0396H101.82V39.6242Z" fill="#424346"/>
<path d="M109.004 21.0396L114.31 36.2416C114.544 36.8864 114.726 37.4294 114.96 38.2864H115.037C115.011 37.6133 114.96 36.8892 114.96 36.2189V21.0396H117.04V39.6242H113.632L108.405 24.7587C108.095 23.9074 107.884 23.0816 107.704 21.9729H107.653C107.679 22.9006 107.704 23.8565 107.704 24.8097V39.6242H105.624V21.0396H109.004Z" fill="#424346"/>
<path d="M122.942 21.0396V34.4117C122.942 35.8569 123.15 38.2072 126.481 38.2072C129.807 38.2072 130.015 35.8569 130.015 34.4117V21.0396H132.095V35.1583C132.095 38.4618 129.884 40.0626 126.481 40.0626C123.073 40.0626 120.864 38.4646 120.864 35.1583V21.0396H122.942Z" fill="#424346"/>
<path d="M137.182 21.0396L141.111 28.2913L145.038 21.0396H147.352L142.334 30.0759L147.458 39.6242H145.092L141.114 31.8549L137.056 39.6242H134.742L139.917 30.0759L134.873 21.0396H137.182Z" fill="#424346"/>
<path d="M109.525 48.0299H9.24164C5.29481 48.0299 2.09745 44.8538 2.09745 40.9394V19.0372C2.09745 15.1229 5.29481 11.9495 9.23879 11.9495H73.6875C74.266 11.9495 74.7362 11.4829 74.7362 10.9087C74.7362 10.3346 74.266 9.86792 73.6875 9.86792H9.24164C4.13784 9.86792 0.00292969 13.9746 0.00292969 19.0372V40.9394C0.00292969 46.0049 4.14068 50.1116 9.24449 50.1116H109.528V48.0299H109.525Z" fill="#424346"/>
<path d="M152.855 9.86792H88.4403C87.8618 9.86792 87.3916 10.3346 87.3916 10.9087C87.3916 11.4829 87.8618 11.9495 88.4403 11.9495H152.858C156.804 11.9495 160.002 15.1229 160.002 19.04V40.9394C160.002 44.8566 156.802 48.0328 152.855 48.0328H109.525V50.1087H152.855C157.95 50.1087 162.093 45.9992 162.093 40.9366V19.04C162.093 13.9831 157.95 9.86792 152.855 9.86792Z" fill="#424346"/>
<path d="M89.1561 6.51631L83.6562 5.57732C83.1831 4.58459 81.5759 1.20762 81.5759 1.20762L81.0516 0.107422L78.4412 5.57449L72.9385 6.51348L76.8682 10.7418L75.9876 16.7377L81.0487 13.9801L86.1098 16.7377L85.2235 10.7418C85.9245 9.98661 88.3126 7.41853 88.4294 7.29409L89.1561 6.51631ZM84.5225 10.4731L85.2691 15.4791L81.0487 13.1797L76.8255 15.4791L77.5749 10.4702L74.2864 6.9349L78.8829 6.14581L81.0459 1.61207L83.2059 6.14581L87.8053 6.9349L84.5225 10.4731Z" fill="#424346"/>
<path d="M77.9507 11.3951L79.4753 13.4541L80.1307 13.0978L77.5973 7.88807L80.9343 12.6594L81.0483 12.5972L82.2138 13.2335L79.6491 7.62504L84.0177 14.2178L84.6104 14.5374L84.5135 13.901L81.698 7.36484L84.1174 11.2L83.9863 10.3063L84.7272 9.5115L83.747 7.10464L85.0122 9.20605L86.8075 7.27433L82.8664 6.6012L81.0483 2.7915L79.2302 6.6012L75.2891 7.27433L78.1103 10.3063L77.9507 11.3951Z" fill="#424346"/>
<path d="M77.7913 12.4841L77.4893 14.5375L78.555 13.9577L77.7913 12.4841Z" fill="#424346"/>
<path d="M153.513 23.3956C153.513 24.7532 152.422 25.8336 151.074 25.8336C149.723 25.8336 148.617 24.7504 148.617 23.3956C148.617 22.0607 149.717 20.9746 151.071 20.9746C152.413 20.9746 153.513 22.0607 153.513 23.3956ZM148.985 23.3956C148.985 24.5524 149.908 25.4744 151.065 25.4744C152.222 25.4744 153.14 24.558 153.14 23.4013C153.14 22.2586 152.225 21.3366 151.065 21.3366C149.905 21.3366 148.985 22.2502 148.985 23.3956ZM150.15 22.0324H151.353C151.82 22.0324 152.33 22.1823 152.33 22.7621C152.33 23.3108 151.914 23.5059 151.464 23.5059L152.282 24.7589H151.88L151.105 23.5059H150.501V24.7589H150.15V22.0324ZM150.501 23.2485H151.307C151.561 23.2485 151.977 23.2033 151.977 22.7508C151.977 22.3435 151.604 22.2926 151.273 22.2926H150.501V23.2485Z" fill="#424346"/>
</svg>

<svg width="163" height="51" viewBox="0 0 163 51" fill="none" xmlns="http://www.w3.org/2000/svg"><path d="M14.437 21.04h2.756l5.252 18.584h-2.288l-1.482-5.34h-5.902l-1.38 5.34H9.106l5.332-18.584zm1.354 1.496h-.051l-2.471 9.885h4.941l-2.42-9.885zm10.347 11.203c0 2.735.78 4.466 3.536 4.466 2.106 0 3.565-.903 3.565-3.097 0-2.399-1.145-2.996-3.043-3.717l-2.759-1.032c-1.715-.645-3.018-1.935-3.018-4.879 0-2.944 2.055-4.8 5.098-4.8 3.25 0 5.176 1.833 5.332 5.241h-2.083c0-2.039-1.011-3.38-3.095-3.38-2.313 0-3.094 1.392-3.094 2.942 0 1.703.441 2.452 1.638 2.89l2.992 1.109c2.967 1.112 4.187 2.865 4.187 5.317 0 3.51-2.186 5.267-5.774 5.267s-5.565-2.323-5.565-6.322h2.077l.006-.005zm17.323 5.885h-2.08V22.898H36.52V21.04H48.3v1.858h-4.836l-.003 16.726zm9.233 0h-2.08V21.04h5.693c3.277 0 5.437 1.575 5.437 5.062 0 2.119-1.222 3.977-3.382 4.285v.05c1.977.233 3.2 1.913 3.2 4.21 0 3.871.339 4.001.624 4.567v.413H60.08c-.416-1.21-.599-2.297-.599-4.31 0-2.452-1.09-3.87-3.408-3.87h-3.38v8.177zm0-10.043h3.613c1.456 0 3.277-.67 3.277-3.408 0-2.681-1.536-3.278-3.354-3.278h-3.536v6.686zm17.001-8.541h2.756l5.255 18.584h-2.289l-1.482-5.34h-5.904l-1.38 5.34h-2.288l5.332-18.584zm1.354 1.496h-.052l-2.47 9.885h4.941l-2.42-9.885zm18.522 15.23h7.643v1.858h-9.726V21.04h2.08v16.726h.003zm12.249 1.858h-2.08V21.04h2.08v18.584zm7.184-18.584l5.306 15.202c.234.644.416 1.187.65 2.044h.077c-.026-.673-.077-1.397-.077-2.067v-15.18h2.08v18.585h-3.408l-5.227-14.865c-.31-.852-.521-1.677-.701-2.786h-.051c.026.928.051 1.884.051 2.837v14.814h-2.08V21.04h3.38zm13.938 0v13.372c0 1.445.208 3.795 3.539 3.795 3.326 0 3.534-2.35 3.534-3.795V21.04h2.08v14.118c0 3.304-2.211 4.905-5.614 4.905-3.408 0-5.617-1.598-5.617-4.905V21.04h2.078zm14.24 0l3.929 7.251 3.927-7.251h2.314l-5.018 9.036 5.124 9.548h-2.366l-3.978-7.77-4.058 7.77h-2.314l5.175-9.548-5.044-9.036h2.309z" fill="#424346"/><path d="M109.525 48.03H9.242c-3.947 0-7.145-3.176-7.145-7.09V19.036c0-3.914 3.198-7.087 7.142-7.087h64.449c.578 0 1.048-.467 1.048-1.041 0-.574-.47-1.041-1.049-1.041H9.243c-5.104 0-9.24 4.107-9.24 9.17v21.901c0 5.066 4.139 9.173 9.242 9.173h100.284V48.03h-.003z" fill="#424346"/><path d="M152.855 9.868H88.44c-.578 0-1.048.467-1.048 1.04 0 .575.47 1.042 1.048 1.042h64.418c3.946 0 7.144 3.173 7.144 7.09v21.9c0 3.917-3.2 7.093-7.147 7.093h-43.33v2.076h43.33c5.095 0 9.238-4.11 9.238-9.172V19.04c0-5.057-4.143-9.172-9.238-9.172z" fill="#424346"/><path d="M89.156 6.516l-5.5-.939-2.08-4.37-.524-1.1-2.61 5.467-5.503.94 3.93 4.228-.881 5.996 5.06-2.758 5.062 2.758-.886-5.996c.7-.755 3.089-3.323 3.205-3.448l.727-.778zm-4.634 3.957l.747 5.006-4.22-2.3-4.224 2.3.75-5.009-3.289-3.535 4.597-.79 2.163-4.533 2.16 4.534 4.6.789-3.284 3.538z" fill="#424346"/><path d="M77.95 11.395l1.525 2.06.656-.357-2.534-5.21 3.337 4.771.114-.062 1.166.636-2.565-5.608 4.369 6.593.592.32-.097-.637-2.815-6.536 2.42 3.835-.132-.894.741-.794-.98-2.407 1.265 2.101 1.796-1.932-3.942-.673-1.818-3.81-1.818 3.81-3.94.673 2.82 3.032-.16 1.09zm-.159 1.089l-.302 2.053 1.066-.58-.764-1.473zm75.722 10.912a2.43 2.43 0 01-2.439 2.438 2.446 2.446 0 01-2.457-2.438c0-1.335 1.1-2.421 2.454-2.421 1.342 0 2.442 1.086 2.442 2.42zm-4.528 0c0 1.156.923 2.078 2.08 2.078a2.06 2.06 0 002.075-2.073 2.06 2.06 0 00-2.075-2.064c-1.16 0-2.08.913-2.08 2.059zm1.165-1.364h1.203c.467 0 .977.15.977.73 0 .549-.416.744-.866.744l.818 1.253h-.402l-.775-1.253h-.604v1.253h-.351v-2.727zm.351 1.216h.806c.254 0 .67-.045.67-.497 0-.408-.373-.458-.704-.458h-.772v.956z" fill="#424346"/></svg>
